assets/img/external-link.svg

<svg fill="none" height="18" viewBox="0 0 18 18" width="18" xmlns="http://www.w3.org/2000/svg"><path d="m7.5 4.50002h-3c-.82843 0-1.5.67157-1.5 1.5v7.49998c0 .8284.67157 1.5 1.5 1.5h7.5c.8284 0 1.5-.6716 1.5-1.5v-3m-3-7.49998h4.5m0 0v4.5m0-4.5-7.5 7.49998" stroke="#828282" stroke-linecap="round" stroke-linejoin="round" stroke-width="2"/></svg>

<svg width="18" height="18" viewBox="0 0 18 18" fill="none" xmlns="http://www.w3.org/2000/svg">
<path d="M7.5 4.50002H4.5C3.67157 4.50002 3 5.17159 3 6.00002V13.5C3 14.3284 3.67157 15 4.5 15H12C12.8284 15 13.5 14.3284 13.5 13.5V10.5M10.5 3.00002H15M15 3.00002V7.50002M15 3.00002L7.5 10.5" stroke="#828282" stroke-width="2" stroke-linecap="round" stroke-linejoin="round"/>
</svg>
